X: 50
T: Dance of the infidels
M:4/4
L:1/8
C:Bud Powell
Q:1/4=190
K:F
%%text (medium)
%%vskip 20
E/D/ || "Fmaj7"CDEF GEFG | "Fm7"_ABcG "Bb7"z3F |\
"Am7"(3AB=B cA "Gm7"_BAGF | "F#m7"A^F (3ED^D "B7"z=BAG |
"Bb7"_ACFG ABcA | "Bbm7"G/_A/G/F/ BA "Eb7"z^FG=F |\
"Am7"=E/F/E/C/ FG c2 z2 | "Abm7"_d_ed_c B_Az Jd- |
"Gm7"d^FGA "C7"Bcd_e- | "Dbm7"e_e_d_c "Gb7"B_A_G2 |\
"Fmaj7"zCFG ABcG | zF[G2E2]-[G2E2][F2D2] !coda!|]
!coda![|]"Fmaj7"z2 [G4E4] [F2D2] | z2 [G4E4] [F2D2] ||


